X:12
M:2/4
L:1/8
K:Bb
|:c|f>ed>c|=B>_AG>F|E>_ag>f|e>dc>d|e>dc>B|A>GF>E|D>ed>g|
f>AB>a|b>fd>B|g>ec>A|f>CA>c|B2 F2|G>BA>c|B>ed>c|d>BF>A|B3:|

